svg/300/outlined/reopen_window-fill.svg

<svg xmlns="http://www.w3.org/2000/svg" width="48" height="48" viewBox="0 -960 960 960"><path d="M157.694-180.001q-23.529 0-40.611-17.082-17.082-17.082-17.082-40.611v-484.612q0-23.529 17.082-40.611 17.082-17.082 40.611-17.082h644.612q23.529 0 40.611 17.082 17.082 17.082 17.082 40.611v254.612h-45.384v-184.075h-669.23v414.075q0 4.616 3.846 8.463 3.847 3.846 8.463 3.846h305.382v45.384H157.694Zm586.92 147.69q-68.384 0-120.384-42.037-52-42.038-67.538-105.653h49.691q14.539 44.384 51.808 72.192 37.269 27.808 86.423 27.808 60.693 0 103.424-42.731 42.731-42.731 42.731-103.424 0-60.692-42.731-103.423T744.614-372.31q-32.846 0-62.077 14.154t-50.924 38.155h66.847v47.691H550.769v-147.691h47.691v65.462q27.769-29.462 65.692-47.462 37.924-18 80.462-18 80.308 0 137.077 56.769 56.769 56.769 56.769 137.076 0 80.308-56.769 137.077Q824.922-32.31 744.614-32.31Z"/></svg>

<svg xmlns="http://www.w3.org/2000/svg" width="48" height="48" viewBox="0 -960 960 960"><path d="M157.69-180q-23.53 0-40.61-17.08T100-237.69v-484.62q0-23.53 17.08-40.61T157.69-780h644.62q23.53 0 40.61 17.08T860-722.31v254.62h-45.39v-184.08H145.39v414.08q0 4.61 3.84 8.46 3.85 3.84 8.46 3.84h305.39V-180H157.69ZM744.61-32.31q-68.38 0-120.38-42.04T556.69-180h49.69q14.54 44.38 51.81 72.19Q695.46-80 744.61-80q60.7 0 103.43-42.73 42.73-42.73 42.73-103.43 0-60.69-42.73-103.42-42.73-42.73-103.43-42.73-32.84 0-62.07 14.15Q653.31-344 631.61-320h66.85v47.69H550.77V-420h47.69v65.46Q626.23-384 664.15-402q37.93-18 80.46-18 80.31 0 137.08 56.77 56.77 56.77 56.77 137.07 0 80.31-56.77 137.08-56.77 56.77-137.08 56.77Z"/></svg>
